X: 56
T: Hobby Horse
T: Longways for as many as will.
%R: jig
B: Daniel Wright "Wright's Compleat Collection of Celebrated Country Dances" 1740 p.28
S: http://library.efdss.org/cgi-bin/dancebooks.cgi
Z: 2014 John Chambers <jc:trillian.mit.edu>
N: Repeats added to match the Note.  Redundant "and &" fixed.
M: 6/4
L: 1/4
K: D
% - - - - - - - - - - - - - - - - - - - - - - - - -
B/c/ |\
d>cB AGF | G2G G2F | E2e e2f | e2d c>Bc | d2D D>ED |\
D>ED D>ED | D>ED D>ED | D3- D2 :: A | d2e f>ef |
g2g g>ag | f2f f>ga | e2A A2A | d2e f>ef | g2g g>ag |\
faf ecA | d2D D>ED | D>ED D>ED | D3- D2 :|
% - - - - - - - - - - - - - - - - - - - - - - - - -
%%begintext align
%% First Man turn the 2d Wo. the 2d Man turn the 1st Wo.
%% Men lead between the Wo. & cast into their own
%% Places, & Gallop, then take double Hands, & turn till
%% the 1st Man be in the 2ds Place; the Wo. doing so, and
%% change Places at the same time, the Wo. lead thro' the
%% Men as before, & turn their own, and Gallop.
%%endtext
%%center Note: Each Strain is to be play'd twice over.
% - - - - - - - - - - - - - - - - - - - - - - - - -
%%sep 2 4 300
